images_sukapura_svg/cmd/sc_grow.svg

<svg viewBox="0 0 16 16" xmlns="http://www.w3.org/2000/svg"><path d="m6.8984375 0-5.8984375 16h1.6875c.1834758 0 .3391615-.05267.4667969-.158203.1356125-.10553.2275273-.227233.2753906-.365235l1.328125-3.835937h6.4843755l1.339843 3.847656c.06382.146119.151991.267822.263672.365235.119658.097412.275344.146484.466797.146484h1.6875l-2.974609-8.0820312-1.015625-2.7636719-.056641-.1542969h-1.1933594c-.1084127.0226596-.2178371.0334097-.3242187.0292969-.0759056-.0029346-.1464099-.0152826-.2167969-.0292969h-.2753906l1.7480466 5.058594h-5.3828122l2.2246093-6.4296878c.0717949-.1948248.1467904-.421874.2265625-.6816406s.1604623-.5450427.2402344-.8535156c.0592823.2480085.1227788.4730245.1875.6933594.0822048-.1440814.1787658-.2797751.2988281-.3867188l1.1035157-1.1035156-.4765626-1.296875z" fill="#69696e"/><path d="m8.507121 1.494946-2.9999998 2.9949499 2.9999998 3.0050501z" fill="#0a84ff" stroke="#0a84ff" stroke-linecap="round" stroke-linejoin="round" transform="matrix(0 1.0000007 -.99998453 0 16.999881 -5.007125)"/></svg>

<?xml version="1.0" encoding="UTF-8" standalone="no"?>
<svg
   xmlns:dc="http://purl.org/dc/elements/1.1/"
   xmlns:cc="http://creativecommons.org/ns#"
   xmlns:rdf="http://www.w3.org/1999/02/22-rdf-syntax-ns#"
   xmlns:svg="http://www.w3.org/2000/svg"
   xmlns="http://www.w3.org/2000/svg"
   xmlns:sodipodi="http://sodipodi.sourceforge.net/DTD/sodipodi-0.dtd"
   xmlns:inkscape="http://www.inkscape.org/namespaces/inkscape"
   viewBox="0 0 16 16"
   version="1.1"
   id="svg10"
   sodipodi:docname="sc_grow.svg"
   inkscape:export-filename="/home/rizmut/Dokumen/Rizmut/Github/libreoffice-style-colibrex/images_colibrex/cmd/sc_grow.png"
   inkscape:export-xdpi="96"
   inkscape:export-ydpi="96"
   inkscape:version="0.92.3 (unknown)">
  <metadata
     id="metadata16">
    <rdf:RDF>
      <cc:Work
         rdf:about="">
        <dc:format>image/svg+xml</dc:format>
        <dc:type
           rdf:resource="http://purl.org/dc/dcmitype/StillImage" />
      </cc:Work>
    </rdf:RDF>
  </metadata>
  <defs
     id="defs14" />
  <sodipodi:namedview
     pagecolor="#ffffff"
     bordercolor="#666666"
     borderopacity="1"
     objecttolerance="10"
     gridtolerance="10"
     guidetolerance="10"
     inkscape:pageopacity="0"
     inkscape:pageshadow="2"
     inkscape:window-width="1366"
     inkscape:window-height="706"
     id="namedview12"
     showgrid="true"
     inkscape:zoom="14.75"
     inkscape:cx="12.014532"
     inkscape:cy="7.1807442"
     inkscape:window-x="0"
     inkscape:window-y="0"
     inkscape:window-maximized="1"
     inkscape:current-layer="svg10">
    <inkscape:grid
       type="xygrid"
       id="grid823" />
  </sodipodi:namedview>
  <g
     id="g850">
    <path
       id="path2"
       d="M 6.8984375 0 L 1 16 L 2.6875 16 C 2.8709758 16 3.0266615 15.94733 3.1542969 15.841797 C 3.2899094 15.736267 3.3818242 15.614564 3.4296875 15.476562 L 4.7578125 11.640625 L 11.242188 11.640625 L 12.582031 15.488281 C 12.645851 15.6344 12.734022 15.756103 12.845703 15.853516 C 12.965361 15.950928 13.121047 16 13.3125 16 L 15 16 L 12.025391 7.9179688 L 11.009766 5.1542969 L 10.953125 5 L 9.7597656 5 C 9.6513529 5.0226596 9.5419285 5.0334097 9.4355469 5.0292969 C 9.3596413 5.0263623 9.289137 5.0140143 9.21875 5 L 8.9433594 5 L 10.691406 10.058594 L 5.3085938 10.058594 L 7.5332031 3.6289062 C 7.604998 3.4340814 7.6799935 3.2070322 7.7597656 2.9472656 C 7.8395377 2.687499 7.9202279 2.4022229 8 2.09375 C 8.0592823 2.3417585 8.1227788 2.5667745 8.1875 2.7871094 C 8.2697048 2.643028 8.3662658 2.5073343 8.4863281 2.4003906 L 9.5898438 1.296875 L 9.1132812 0 L 6.8984375 0 z "
       style="fill:#69696e;fill-opacity:1" />
    <g
       style="fill:#0a84ff;fill-opacity:1;stroke:#0a84ff;stroke-opacity:1"
       id="g8"
       transform="matrix(0 1.0000007 -.99998453 0 16.999881 -5.007125)"
       stroke-linejoin="round"
       stroke-linecap="round"
       stroke="#4d82b8"
       fill="none">
      <path
         style="fill:#0a84ff;fill-opacity:1;stroke:#0a84ff;stroke-opacity:1"
         id="path4"
         d="M 8.507121,1.494946 5.5071212,4.4898959 8.507121,7.494946 Z" />
    </g>
  </g>
</svg>
